icons/svg/24x24/download/filled.svg

<svg xmlns="http://www.w3.org/2000/svg" width="24" height="24" viewBox="0 0 24 24">
  <path fill-rule="evenodd" d="M8.6904,6.9727 C9.0244,7.8107 9.2214,8.6077 9.3164,9.4307 C9.3884,9.9377 9.4194,10.4627 9.4464,10.9997 L6.0004,10.9997 L12.0004,18.9997 L18.0004,10.9997 L14.4874,10.9997 C14.4234,10.0457 14.2084,9.0737 13.8464,8.1347 C13.3434,6.8707 12.5654,5.6927 11.5934,4.7967 C10.6374,3.8857 9.5404,3.2307 8.4224,2.7887 C7.3034,2.3417 6.1534,2.0977 5.0004,1.9997 C5.8024,2.8397 6.5534,3.6587 7.1944,4.4827 C7.8334,5.3097 8.3454,6.1457 8.6904,6.9727 M22.0004,16.9997 L22.0004,18.9997 C22.0004,20.6547 20.6544,21.9997 19.0004,21.9997 L5.0004,21.9997 C3.3454,21.9997 2.0004,20.6547 2.0004,18.9997 L2.0004,16.9997 C2.0004,16.4477 2.4474,15.9997 3.0004,15.9997 C3.5524,15.9997 4.0004,16.4477 4.0004,16.9997 L4.0004,18.9997 C4.0004,19.5517 4.4484,19.9997 5.0004,19.9997 L19.0004,19.9997 C19.5514,19.9997 20.0004,19.5517 20.0004,18.9997 L20.0004,16.9997 C20.0004,16.4477 20.4474,15.9997 21.0004,15.9997 C21.5524,15.9997 22.0004,16.4477 22.0004,16.9997"/>
</svg>

<svg width="24" height="24" fill="none" xmlns="http://www.w3.org/2000/svg">
  <path fill-rule="evenodd" clip-rule="evenodd" d="M8.69 6.973c.334.838.531 1.635.626 2.458.072.507.103 1.032.13 1.569H6l6 8 6-8h-3.513a9.823 9.823 0 00-.64-2.865c-.504-1.264-1.282-2.442-2.254-3.338a9.81 9.81 0 00-3.17-2.008A11.887 11.887 0 005 1.999c.802.84 1.553 1.66 2.194 2.484.64.827 1.151 1.663 1.496 2.49zM22 17v2c0 1.655-1.346 3-3 3H5c-1.655 0-3-1.345-3-3v-2a1 1 0 112 0v2a1 1 0 001 1h14c.551 0 1-.448 1-1v-2a1 1 0 112 0z" fill="#000"/>
</svg>
